docs/.gitbook/assets/icon-thumbs-down-filled-16@dark.svg

<svg width="32" height="32" viewBox="0 0 16 16" fill="none" xmlns="http://www.w3.org/2000/svg">
<rect x="0" y="0" width="16" height="16" fill="#181c1f"/>
<path fill-rule="evenodd" clip-rule="evenodd" d="M1.00391 8.66038V3.88494C1.00391 3.14098 1.41244 2.44117 2.10837 2.17817C5.53341 0.883805 8.60185 1.94473 10.0732 2.65497C10.668 2.94206 10.9929 3.56023 10.993 4.22065C10.9931 5.58637 10.9931 7.90944 10.9929 8.90803C9.82553 10.7431 9.67158 13.3493 9.66257 14.452C9.66023 14.7385 9.42755 14.9792 9.14171 14.9604C5.94663 14.7509 5.18057 12.6033 5.77705 10.0248C5.79471 9.94844 5.75947 9.97248 5.65615 10.043C5.33707 10.2607 4.36872 10.9214 2.3041 10.4366C1.50274 10.2485 1.00391 9.48353 1.00391 8.66038ZM12.5 9.75006V3.25006C12.5 2.5597 13.0596 2.00006 13.75 2.00006C14.4404 2.00006 15 2.5597 15 3.25006V9.75006C15 10.4404 14.4404 11.0001 13.75 11.0001C13.0596 11.0001 12.5 10.4404 12.5 9.75006Z" fill="#fff"/>
</svg>

<svg xmlns="http://www.w3.org/2000/svg" width="32" height="32" fill="none" viewBox="0 0 16 16"><path fill="#181c1f" d="M0 0h16v16H0z"/><path fill="#fff" fill-rule="evenodd" d="M1.004 8.66V3.885c0-.744.408-1.444 1.104-1.707 3.425-1.294 6.494-.233 7.965.477.595.287.92.905.92 1.566v4.687c-1.167 1.835-1.321 4.441-1.33 5.544-.003.287-.235.527-.521.508-3.195-.21-3.961-2.357-3.365-4.935.018-.077-.018-.053-.12.018-.32.218-1.288.878-3.353.394-.801-.188-1.3-.953-1.3-1.777M12.5 9.75v-6.5a1.25 1.25 0 1 1 2.5 0v6.5a1.25 1.25 0 1 1-2.5 0" clip-rule="evenodd"/></svg>
